img/fish.svg

<svg width="484" height="151" viewBox="0 0 484 151" fill="none" xmlns="http://www.w3.org/2000/svg">
<g opacity="0.15">
<path fill-rule="evenodd" clip-rule="evenodd" d="M370.831 52.0516C380.073 63.084 378.013 91.5917 367.638 99.4823C361.868 83.1801 363.895 67.7079 370.831 52.0516ZM329.211 117.213C320.711 99.2421 324.462 47.9706 331.414 34.8633C345.093 53.0594 344.063 96.5651 329.211 117.213ZM91.0073 43.8584C102.532 43.8335 110.64 52.1171 110.648 63.9077C110.656 75.5205 102.164 84.2347 90.9673 84.0974C79.7463 83.9695 71.7893 75.6952 71.7175 64.1136C71.6377 52.1015 79.475 43.8834 91.0073 43.8584V43.8584ZM285.58 19.65C308.461 50.4073 303.592 109.338 282.555 131.509C283.569 94.25 284.558 57.5397 285.58 19.65ZM154.111 12.2275C181.988 52.6195 174.271 111.669 151.159 136.358C157.168 94.3218 155.676 53.2996 154.111 12.2275ZM234.343 138.451C241.869 96.2001 242.316 54.3698 242.212 11.2541C265.005 43.0753 262.834 110.87 234.343 138.451ZM194.111 139.64C198.046 96.5651 205.181 53.5461 197.04 10.1745C225.723 42.108 221.829 102.74 194.111 139.64ZM450.216 78.1319C463.464 69.9918 473.496 59.4242 480.192 45.9738C489.011 28.2177 482.267 16.8139 462.499 15.073C451.916 14.137 442.044 16.5019 433.193 21.8934C425.061 26.8386 417.575 32.8603 409.857 38.4826C407.798 39.9833 405.954 41.7648 403.967 43.3779C395.97 49.8177 387.63 50.7037 378.141 46.2452C360.863 38.13 343.64 29.6966 325.779 23.0446C288.014 8.98583 248.636 2.25902 208.421 0.415076C147.456 -2.39645 89.1636 9.11994 33.4016 33.5935C24.5987 37.4592 16.6021 43.2188 8.37383 48.3388C6.39459 49.5618 4.81439 51.5586 3.38582 53.4431C-1.41065 59.7051 -1.22719 66.1666 4.67861 71.3896C49.8261 111.376 99.874 141.743 161.246 148.554C220.736 155.144 278.692 148.788 334.055 124.97C349.235 118.452 363.8 110.465 378.62 103.098C383.329 100.758 388.013 98.356 392.57 95.7508C395.34 94.1627 396.585 95.0082 398.213 97.526C402.722 104.465 407.104 111.591 412.451 117.853C423.065 130.28 436.712 135.041 452.834 131.294C464.246 128.651 469.29 120.798 467.399 109.307C465.364 97.0144 458.747 87.1956 450.216 78.1319" fill="#FAB751"/>
<path fill-rule="evenodd" clip-rule="evenodd" d="M194.112 139.64C221.83 102.74 225.724 42.1082 197.041 10.1747C205.182 53.5463 198.047 96.5653 194.112 139.64Z" fill="white"/>
<path fill-rule="evenodd" clip-rule="evenodd" d="M234.343 138.452C262.834 110.871 265.005 43.0754 242.212 11.2542C242.315 54.3699 241.868 96.2001 234.343 138.452Z" fill="white"/>
<path fill-rule="evenodd" clip-rule="evenodd" d="M154.112 12.2281C155.676 53.3002 157.168 94.3224 151.159 136.359C174.271 111.67 181.989 52.6201 154.112 12.2281Z" fill="white"/>
<path fill-rule="evenodd" clip-rule="evenodd" d="M285.579 19.6503C284.558 57.5399 283.568 94.2503 282.555 131.51C303.592 109.339 308.46 50.4075 285.579 19.6503Z" fill="white"/>
<path fill-rule="evenodd" clip-rule="evenodd" d="M91.0077 43.858C79.4755 43.883 71.6382 52.1011 71.718 64.1132C71.7898 75.6948 79.7468 83.9691 90.9678 84.097C102.165 84.2343 110.656 75.5201 110.648 63.9073C110.64 52.1167 102.532 43.833 91.0077 43.858" fill="white"/>
<path fill-rule="evenodd" clip-rule="evenodd" d="M329.211 117.214C344.064 96.5653 345.093 53.0596 331.414 34.8635C324.463 47.9708 320.712 99.2423 329.211 117.214Z" fill="white"/>
<path fill-rule="evenodd" clip-rule="evenodd" d="M370.831 52.0509C363.888 67.7072 361.868 83.1795 367.639 99.4817C378.014 91.5911 380.073 63.0833 370.831 52.0509Z" fill="white"/>
</g>
</svg>

<svg width="484" height="151" fill="none" xmlns="http://www.w3.org/2000/svg"><g opacity=".15" fill-rule="evenodd" clip-rule="evenodd"><path d="M370.831 52.052c9.242 11.032 7.182 39.54-3.193 47.43-5.77-16.302-3.743-31.774 3.193-47.43zm-41.62 65.161c-8.5-17.97-4.749-69.242 2.203-82.35 13.679 18.196 12.649 61.702-2.203 82.35zM91.007 43.858c11.525-.024 19.633 8.26 19.641 20.05.008 11.612-8.484 20.327-19.68 20.19-11.222-.129-19.179-8.403-19.25-19.984-.08-12.013 7.757-20.23 19.29-20.256zM285.58 19.65c22.881 30.757 18.012 89.688-3.025 111.859 1.014-37.259 2.003-73.97 3.025-111.859zm-131.469-7.422c27.877 40.392 20.16 99.441-2.952 124.13 6.009-42.036 4.517-83.058 2.952-124.13zm80.232 126.223c7.526-42.25 7.973-84.081 7.869-127.197 22.793 31.821 20.622 99.616-7.869 127.197zm-40.232 1.189c3.935-43.075 11.07-86.094 2.929-129.465 28.683 31.933 24.789 92.565-2.929 129.465zm256.105-61.508c13.248-8.14 23.28-18.708 29.976-32.158 8.819-17.756 2.075-29.16-17.693-30.901-10.583-.936-20.455 1.429-29.306 6.82-8.132 4.946-15.618 10.967-23.336 16.59-2.059 1.5-3.903 3.282-5.89 4.895-7.997 6.44-16.337 7.326-25.826 2.867-17.278-8.115-34.501-16.548-52.362-23.2C288.014 8.985 248.636 2.259 208.421.415 147.456-2.396 89.164 9.12 33.401 33.593 24.6 37.46 16.603 43.22 8.375 48.34c-1.98 1.223-3.56 3.22-4.988 5.104-4.797 6.262-4.613 12.724 1.293 17.947 45.147 39.986 95.195 70.353 156.567 77.164 59.49 6.59 117.446.234 172.809-23.584 15.18-6.518 29.745-14.505 44.565-21.872 4.709-2.34 9.393-4.742 13.95-7.347 2.77-1.588 4.015-.743 5.643 1.775 4.509 6.939 8.891 14.065 14.238 20.327 10.614 12.427 24.261 17.188 40.383 13.441 11.412-2.643 16.456-10.496 14.565-21.987-2.035-12.293-8.652-22.111-17.183-31.175" fill="#FAB751"/><path d="M194.112 139.64c27.718-36.9 31.612-97.532 2.929-129.465 8.141 43.371 1.006 86.39-2.929 129.465zm40.231-1.188c28.491-27.581 30.662-95.377 7.869-127.198.103 43.116-.344 84.946-7.869 127.198zM154.112 12.228c1.564 41.072 3.056 82.094-2.953 124.131 23.112-24.689 30.83-83.739 2.953-124.13zm131.467 7.422c-1.021 37.89-2.011 74.6-3.024 111.86 21.037-22.171 25.905-81.102 3.024-111.86zM91.008 43.858c-11.532.025-19.37 8.243-19.29 20.255.072 11.582 8.029 19.856 19.25 19.984 11.197.137 19.688-8.577 19.68-20.19-.008-11.79-8.116-20.074-19.64-20.049m238.203 73.356c14.853-20.649 15.882-64.154 2.203-82.35-6.951 13.107-10.702 64.378-2.203 82.35zm41.62-65.164c-6.943 15.657-8.963 31.13-3.192 47.432 10.375-7.89 12.434-36.399 3.192-47.431z" fill="#fff"/></g></svg>
